flaticon/sport/measuring-tape.svg

<svg xmlns="http://www.w3.org/2000/svg" width="32" height="32" viewBox="0 0 24 24">
    <path d="M 6.601562 12.800781 C 4.0625 12.800781 2 14.863281 2 17.398438 C 2 19.9375 4.0625 22 6.601562 22 C 9.136719 22 11.199219 19.9375 11.199219 17.398438 C 11.199219 14.863281 9.136719 12.800781 6.601562 12.800781 Z M 6.601562 21.199219 C 4.503906 21.199219 2.800781 19.496094 2.800781 17.398438 C 2.800781 15.304688 4.503906 13.601562 6.601562 13.601562 C 8.695312 13.601562 10.398438 15.304688 10.398438 17.398438 C 10.398438 19.496094 8.695312 21.199219 6.601562 21.199219 Z M 6.601562 21.199219"/>
    <path d="M 22.746094 0 L 6.441406 0 C 2.890625 0 0 2.890625 0 6.441406 L 0 18 L 0.03125 18 C 0.335938 21.359375 3.164062 24 6.601562 24 C 10.238281 24 13.199219 21.039062 13.199219 17.398438 L 13.199219 11.601562 L 22.746094 11.601562 C 23.4375 11.601562 24 11.039062 24 10.34375 L 24 1.253906 C 24 0.5625 23.4375 0 22.746094 0 Z M 6.601562 23.199219 C 3.402344 23.199219 0.800781 20.597656 0.800781 17.398438 C 0.800781 14.203125 3.402344 11.601562 6.601562 11.601562 C 6.789062 11.601562 6.972656 11.609375 7.160156 11.628906 L 7.164062 11.628906 C 10.097656 11.914062 12.398438 14.390625 12.398438 17.398438 C 12.398438 20.597656 9.796875 23.199219 6.601562 23.199219 Z M 12.398438 14.253906 C 12.308594 14.085938 12.207031 13.921875 12.101562 13.765625 C 12.074219 13.71875 12.039062 13.671875 12.007812 13.628906 C 11.925781 13.511719 11.84375 13.398438 11.753906 13.289062 C 11.71875 13.246094 11.683594 13.199219 11.648438 13.15625 C 11.527344 13.011719 11.402344 12.875 11.273438 12.742188 C 11.265625 12.738281 11.261719 12.734375 11.257812 12.726562 C 11.125 12.597656 10.984375 12.472656 10.84375 12.351562 C 10.800781 12.316406 10.753906 12.28125 10.710938 12.246094 C 10.601562 12.15625 10.488281 12.074219 10.371094 11.992188 C 10.328125 11.960938 10.28125 11.925781 10.234375 11.894531 C 10.074219 11.792969 9.914062 11.691406 9.746094 11.597656 L 12.398438 11.597656 Z M 21.199219 10.800781 L 20.398438 10.800781 L 20.398438 5.601562 C 20.398438 5.378906 20.222656 5.199219 20 5.199219 C 19.777344 5.199219 19.601562 5.378906 19.601562 5.601562 L 19.601562 10.800781 L 18 10.800781 L 18 8.800781 C 18 8.578125 17.820312 8.398438 17.601562 8.398438 C 17.378906 8.398438 17.199219 8.578125 17.199219 8.800781 L 17.199219 10.800781 L 15.601562 10.800781 L 15.601562 5.601562 C 15.601562 5.378906 15.421875 5.199219 15.199219 5.199219 C 14.980469 5.199219 14.800781 5.378906 14.800781 5.601562 L 14.800781 10.800781 L 13.199219 10.800781 L 13.199219 8.800781 C 13.199219 8.578125 13.019531 8.398438 12.800781 8.398438 C 12.578125 8.398438 12.398438 8.578125 12.398438 8.800781 L 12.398438 10.800781 L 10.800781 10.800781 L 10.800781 5.601562 C 10.800781 5.378906 10.621094 5.199219 10.398438 5.199219 C 10.179688 5.199219 10 5.378906 10 5.601562 L 10 10.800781 L 8.398438 10.800781 L 8.398438 8.800781 C 8.398438 8.578125 8.222656 8.398438 8 8.398438 C 7.777344 8.398438 7.601562 8.578125 7.601562 8.800781 L 7.601562 10.800781 L 6.601562 10.800781 C 6.398438 10.800781 6.199219 10.8125 6 10.832031 L 6 5.601562 C 6 5.378906 5.820312 5.199219 5.601562 5.199219 C 5.378906 5.199219 5.199219 5.378906 5.199219 5.601562 L 5.199219 10.949219 C 5.03125 10.988281 4.863281 11.03125 4.695312 11.082031 C 4.652344 11.097656 4.605469 11.113281 4.558594 11.125 C 4.40625 11.175781 4.253906 11.230469 4.105469 11.292969 C 4.074219 11.304688 4.039062 11.320312 4.007812 11.332031 C 3.867188 11.390625 3.734375 11.457031 3.601562 11.523438 L 3.601562 8 C 3.601562 7.777344 3.421875 7.601562 3.199219 7.601562 C 2.980469 7.601562 2.800781 7.777344 2.800781 8 L 2.800781 12 C 2.800781 12.003906 2.800781 12.003906 2.800781 12.007812 C 2.671875 12.097656 2.550781 12.191406 2.429688 12.292969 C 2.402344 12.3125 2.375 12.335938 2.347656 12.359375 C 2.226562 12.460938 2.109375 12.570312 1.996094 12.679688 C 1.960938 12.710938 1.929688 12.742188 1.898438 12.777344 C 1.765625 12.910156 1.640625 13.046875 1.519531 13.191406 C 1.503906 13.210938 1.492188 13.226562 1.476562 13.246094 C 1.371094 13.375 1.269531 13.511719 1.175781 13.652344 C 1.148438 13.691406 1.121094 13.730469 1.09375 13.769531 C 0.992188 13.925781 0.890625 14.085938 0.800781 14.253906 L 0.800781 6.441406 C 0.800781 3.332031 3.332031 0.800781 6.441406 0.800781 L 21.199219 0.800781 Z M 23.199219 10.34375 C 23.199219 10.597656 22.996094 10.800781 22.746094 10.800781 L 22 10.800781 L 22 0.800781 L 22.746094 0.800781 C 22.996094 0.800781 23.199219 1.003906 23.199219 1.253906 Z M 23.199219 10.34375"/>
    <path d="M 6.601562 14.800781 C 5.167969 14.800781 4 15.964844 4 17.398438 C 4 18.832031 5.167969 20 6.601562 20 C 8.035156 20 9.199219 18.832031 9.199219 17.398438 C 9.199219 15.964844 8.035156 14.800781 6.601562 14.800781 Z M 6.601562 19.199219 C 5.609375 19.199219 4.800781 18.390625 4.800781 17.398438 C 4.800781 16.40625 5.609375 15.601562 6.601562 15.601562 C 7.59375 15.601562 8.398438 16.40625 8.398438 17.398438 C 8.398438 18.390625 7.59375 19.199219 6.601562 19.199219 Z M 6.601562 19.199219"/>
</svg>

<svg xmlns="http://www.w3.org/2000/svg" width="32" height="32" viewBox="0 0 24 24">
    <path d="M6.602 12.8A4.604 4.604 0 0 0 2 17.399 4.605 4.605 0 0 0 6.602 22a4.604 4.604 0 0 0 4.597-4.602 4.603 4.603 0 0 0-4.597-4.597zm0 8.4A3.803 3.803 0 0 1 2.8 17.397a3.802 3.802 0 0 1 3.8-3.796 3.801 3.801 0 0 1 3.797 3.796c0 2.098-1.703 3.801-3.796 3.801zm0 0"/>
    <path d="M22.746 0H6.441A6.45 6.45 0 0 0 0 6.441V18h.031c.305 3.36 3.133 6 6.57 6 3.637 0 6.598-2.96 6.598-6.602v-5.796h9.547c.692 0 1.254-.563 1.254-1.258v-9.09C24 .562 23.437 0 22.746 0zM6.602 23.2C3.402 23.2.8 20.597.8 17.397a5.806 5.806 0 0 1 6.36-5.77h.003a5.805 5.805 0 0 1 5.234 5.77c0 3.2-2.601 5.801-5.796 5.801zm5.796-8.946a5.603 5.603 0 0 0-.296-.488c-.028-.047-.063-.094-.094-.137a5.488 5.488 0 0 0-.254-.34c-.035-.043-.07-.09-.106-.133a7.62 7.62 0 0 0-.39-.43 9.429 9.429 0 0 0-.414-.374c-.043-.036-.09-.07-.133-.106a5.488 5.488 0 0 0-.34-.254c-.043-.031-.09-.066-.137-.097-.16-.102-.32-.204-.488-.297h2.652zM21.2 10.8h-.8V5.6a.398.398 0 1 0-.797 0v5.2H18v-2a.401.401 0 1 0-.8 0v2h-1.598V5.6a.401.401 0 0 0-.8 0l-.001 5.2h-1.602v-2a.401.401 0 1 0-.8 0v2H10.8V5.6a.401.401 0 0 0-.8 0l-.001 5.2H8.398v-2a.398.398 0 1 0-.796 0v2h-1c-.204 0-.403.011-.602.031v-5.23a.401.401 0 1 0-.8 0v5.347a7.99 7.99 0 0 0-.505.133 6.307 6.307 0 0 0-.59.21l-.097.04c-.14.059-.274.125-.406.191V8a.398.398 0 0 0-.403-.398.398.398 0 0 0-.398.398v4.008c-.13.09-.25.183-.371.285-.028.02-.055.043-.082.066a6.833 6.833 0 0 0-.45.418c-.132.133-.257.27-.378.414l-.043.055a5.2 5.2 0 0 0-.301.406l-.082.118a6.641 6.641 0 0 0-.293.484V6.44C.8 3.332 3.332.801 6.44.801H21.2zm2-.457a.454.454 0 0 1-.453.457H22V.8h.746c.25 0 .453.203.453.453zm0 0"/>
    <path d="M6.602 14.8A2.602 2.602 0 0 0 4 17.399 2.606 2.606 0 0 0 6.602 20a2.599 2.599 0 1 0 0-5.2zm0 4.4c-.993 0-1.801-.81-1.801-1.802a1.8 1.8 0 0 1 1.8-1.796c.993 0 1.797.804 1.797 1.796A1.8 1.8 0 0 1 6.602 19.2zm0 0"/>
</svg>
